src/icons/svg/data_statistics.svg

<svg enable-background="new 0 0 18 18" viewBox="0 0 18 18" xmlns="http://www.w3.org/2000/svg"><path d="m5 11.2h-2c-.5 0-.9.4-.9 1v4.8c0 .5.4 1 .9 1h2c.5 0 .9-.4.9-1v-4.8c0-.5-.4-1-.9-1zm5-2.7h-2c-.5 0-.9.4-.9 1v7.5c0 .5.4 1 .9 1h2c.5 0 .9-.4.9-1v-7.5c0-.6-.4-1-.9-1zm5.1-2.5h-2c-.5 0-.9.4-.9 1v10c0 .5.4 1 .9 1h2c.5 0 .9-.4.9-1v-10c0-.6-.4-1-.9-1zm-1.8-6 .9.9-4.9 4.6-2.6-2.7-4.7 4.3.9.9 3.8-3.4 2.7 2.7 5.8-5.5.8 1v-2.8z"/></svg>

<?xml version="1.0" encoding="utf-8"?>
<!-- Generator: Adobe Illustrator 24.0.1, SVG Export Plug-In . SVG Version: 6.00 Build 0)  -->
<svg version="1.1" id="图层_1" xmlns="http://www.w3.org/2000/svg" xmlns:xlink="http://www.w3.org/1999/xlink" x="0px" y="0px"
	 viewBox="0 0 18 18" style="enable-background:new 0 0 18 18;" xml:space="preserve">
<title>Artboard Copy 22备份 2</title>
<g id="Artboard-Copy-22备份-2">
	<path id="形状" d="M5,11.2h-2c-0.5,0-0.9,0.4-0.9,1V17c0,0.5,0.4,1,0.9,1h2c0.5,0,0.9-0.4,0.9-1v-4.8C5.9,11.7,5.5,11.2,5,11.2
		L5,11.2z M10,8.5H8c-0.5,0-0.9,0.4-0.9,1V17c0,0.5,0.4,1,0.9,1h2c0.5,0,0.9-0.4,0.9-1V9.5C10.9,8.9,10.5,8.5,10,8.5L10,8.5z
		 M15.1,6h-2c-0.5,0-0.9,0.4-0.9,1v10c0,0.5,0.4,1,0.9,1h2c0.5,0,0.9-0.4,0.9-1V7C16,6.4,15.6,6,15.1,6L15.1,6z M13.3,0l0.9,0.9
		L9.3,5.5L6.7,2.8L2,7.1L2.9,8l3.8-3.4l2.7,2.7l5.8-5.5L16,2.8V0H13.3L13.3,0z"/>
</g>
</svg>
